build/flags/Guatemala.svg

<svg xmlns="http://www.w3.org/2000/svg" fill="none" viewBox="0 0 28 28" focusable="false"><defs><filter id="Guatemala_svg__a"><feColorMatrix values="0 0 0 0 1 0 0 0 0 1 0 0 0 0 1 0 0 0 1 0"/></filter></defs><mask id="Guatemala_svg__b" width="28" height="20" x="0" y="4" maskUnits="userSpaceOnUse"><g filter="url(#Guatemala_svg__a)"><rect width="28" height="20" y="4" fill="#FFF" rx="3"/><rect width="27.5" height="19.5" x=".25" y="4.25" stroke="#F5F5F5" stroke-width=".5" rx="2.75"/></g></mask><path fill="none" d="M0 0H28V28H0z"/><rect width="28" height="20" y="4" fill="#FFF" rx="3"/><rect width="27.5" height="19.5" x=".25" y="4.25" stroke="#D6D8DD" stroke-width=".5" rx="2.75"/><g mask="url(#Guatemala_svg__b)"><path fill="#63AEE3" d="M18.667 4H28V24H18.667z"/><path d="M18.667 4H28V24H18.667z"/><path fill="#63AEE3" fill-rule="evenodd" d="M0 24L9.33333 24L9.33333 4L0 4L0 24Z"/><path d="M9.33333 24L9.33333 4L0 4L0 24L9.33333 24Z"/><path fill="none" d="M12.6637 15.6415C11.8683 15.18 11.3334 14.3192 11.3334 13.3334L12.6637 15.6415ZM16.6667 13.3334C16.6667 14.2779 16.1756 15.1077 15.4349 15.5815L16.6667 13.3334Z"/><path stroke="#628A40" stroke-linecap="round" stroke-width="1.333" d="M12.6637 15.6415C11.8683 15.18 11.3334 14.3192 11.3334 13.3334L12.6637 15.6415ZM16.6667 13.3334C16.6667 14.2779 16.1756 15.1077 15.4349 15.5815L16.6667 13.3334Z"/><path fill="#DCC26D" fill-rule="evenodd" d="M14 14.6667C14.7363 14.6667 15.3333 14.0697 15.3333 13.3333C15.3333 12.597 14.7363 12 14 12C13.2636 12 12.6666 12.597 12.6666 13.3333C12.6666 14.0697 13.2636 14.6667 14 14.6667Z"/><path d="M15.3333 13.3333C15.3333 12.597 14.7363 12 14 12C13.2636 12 12.6666 12.597 12.6666 13.3333C12.6666 14.0697 13.2636 14.6667 14 14.6667C14.7363 14.6667 15.3333 14.0697 15.3333 13.3333Z"/></g></svg>

<svg xmlns="http://www.w3.org/2000/svg" fill="none" viewBox="0 0 28 28" focusable="false"><path fill="none" d="M0 0h28v28H0z"/><rect width="28" height="20" y="4" fill="#FFF" rx="3"/><rect width="27.5" height="19.5" x=".25" y="4.25" stroke="#D6D8DD" stroke-width=".5" rx="3"/><mask id="Guatemala_svg__a" width="28" height="20" x="0" y="4" mask-type="alpha" maskUnits="userSpaceOnUse"><rect width="28" height="20" y="4" fill="#FFF" rx="3"/><rect width="27.5" height="19.5" x=".25" y="4.25" stroke="#F5F5F5" stroke-width=".5" rx="3"/></mask><g mask="url(#Guatemala_svg__a)"><path fill="#63AEE3" d="M18.667 4H28v20h-9.333z"/><path d="M18.667 4H28v20h-9.333z"/></g><g mask="url(#Guatemala_svg__a)"><path fill="#63AEE3" fill-rule="evenodd" d="M0 24h9.33V4H0z"/><path d="M9.33 24V4H0v20z"/></g><g mask="url(#Guatemala_svg__a)"><mask id="Guatemala_svg__b" fill="#fff"><path fill-rule="evenodd" d="M12.664 15.642a2.67 2.67 0 0 1-1.33-2.309zm4.003-2.309c0 .945-.491 1.775-1.232 2.249z" clip-rule="evenodd"/></mask><path fill="none" d="M12.664 15.642a2.67 2.67 0 0 1-1.33-2.309zm4.003-2.309c0 .945-.491 1.775-1.232 2.249z" clip-rule="evenodd" mask="url(#Guatemala_svg__b)"/><path fill="#628A40" d="M12.33 16.218q-.76-.44-1.204-1.196-.46-.78-.46-1.689v-2.491l2.575 4.467zm.668-1.153-.334.577-.578.332-1.33-2.308.577-.333H12q0 .546.275 1.013.267.454.723.719m4.335-1.732q0 .87-.423 1.627-.41.731-1.116 1.183l-.944-.882 1.232-2.248zm-1.333 0h.667l.584.32-1.232 2.249-.584-.32-.36-.562q.426-.272.672-.712.253-.452.253-.975"/></g><g mask="url(#Guatemala_svg__a)"><path fill="#DCC26D" fill-rule="evenodd" d="M14 14.66A1.33 1.33 0 1 0 14 12c-.74 0-1.34.59-1.34 1.33 0 .73.6 1.33 1.34 1.33"/><path d="M15.33 13.33c0-.74-.6-1.33-1.33-1.33-.74 0-1.34.59-1.34 1.33a1.336 1.336 0 0 0 2.67 0"/></g></svg>
